X:1
T:Twin Sisters
L:1/8
M:2/2
I:linebreak $
K:D
V:1 treble nm="Voice" snm="Voice"
V:1
 dB |"D" AFDF A2 A2 | BABd e2 d2 | fdfd e2 f2 |"D" dfed"G" B2 dB |$ AFDF A2 A2 | BABd e2 d2 | %7
 fdfd e2 f2 |1 d4 d2 :|2 d4 d4 |:$ a2 f2 a4 | fefg a4 | f2 af e2 f2 |"D" dfed"G" B2 d2 |$ %14
 a2 f2 a4 | fefg a4 | f2 af e2 fe |1 d4 d4 :|2 d4 d2 |] %19
